!!!OTL: No_17_Song_of_Y'ak,_the_Medicine_Man_(c).krn
!!!REG: British Columbia
!!!SOCIAL_FUNCTION: songs with treatment of the sick
**kern	**kern
*staff2	*staff1
=1-	=1-
*clefF4	*clefF4
*k[b-e-a-]	*k[b-e-a-]
*M3/4	*M3/4
8GG/L	2r
8GG/J	.
8GG/L	.
8GG/J	.
8GG/L	8.r
8GG/J	.
.	16e-\
=2	=2
2.r	8e-\
.	8r
.	16e-\LL
.	16e-\JJ
.	8r
.	8e-\L
.	8c\J
=3	=3
2.r	2c\
.	4B-\
=4	=4
2.r	8e-\
.	8r
.	16e-\LL
.	16e-\JJ
.	8r
.	8e-\L
.	8c\J
=5	=5
2.r	4c\
.	8d\L
.	8c\J
.	8B-\
.	8r
=6	=6
2.r	8.c\L
.	16c\Jk
.	8c\
.	8r
.	8c\
.	8r
=7||	=7||
*M2/4	*M2/4
2r	2c\
=8	=8
2r	8d\L
.	8c\J
.	8B-\
.	8r
=9||	=9||
*M3/4	*M3/4
2.r	8.c\L
.	16c\Jk
.	8c\
.	8r
.	8c\
.	8r
=10	=10
2.r	4c\
.	8c\
.	8r
.	4c\
=11!|:	=11!|:
2.r	4e-\
.	16f\LL
.	16e-\JJ
.	16r
.	16e-\
.	8.e-\L
.	16e-\Jk
=12||	=12||
*M2/4	*M2/4
2r	16e-\LK
.	8.c\J
.	4c\
=13	=13
2r	8e-\L
.	8c\J
.	8B-\
.	8r
=14	=14
2r	8.e-\L
.	16e-\Jk
.	8e-\
.	8r
=15	=15
2r	16e-\LK
.	8.c\J
.	4c\
=16	=16
2r	8e-\L
.	8c\J
.	8B-\
.	8r
=17||	=17||
*M3/4	*M3/4
2.r	8.c\L
.	16c\Jk
.	16c\LL
.	16B-\JJ
.	8r
.	8c\
.	8r
=18||	=18||
*M2/4	*M2/4
2r	2c\
=19	=19
2r	8d\L
.	8c\J
.	8B-\
.	8r
=20||	=20||
*M3/4	*M3/4
2.r	8.c\L
.	16c\Jk
.	8c\L
.	16G\Jk
.	16r
.	4c\
=21	=21
2.r	4c\
.	4r
.	4c\
=22:|!	=22:|!
2.r	4c\
.	2r
==	==
*-	*-
